X: 32
T:The World Turned Upside Down
C:Traditional
M:C
N:Posted by Dan Mozell 12/97. Tradition says that this tune was played at the British
N:surrender to the American Continental Army at Yorktown on October 19th, 1781.
F:http://otterlimits.org/fiddling/tunes/longlist.txt 2005-10-29 17:20:15 UT
K:G
D2 D2  G2 G2 | ABcd B2 AB | c2 E2 F2 G2 | A3 G G2 D2 |
D2 D2  G2 G2 | ABcd B2 AB | c2 E2 F2 G2 | A6 A2 |:
A2 FG A3 B  | AGFG A3 B  | AGFG  A2 B2 | E3 D D2 D2 |
d2 dc B2 AG | ABcd B2 AB | c2 E2 F2 G2 |[1 A6 A2 :|[2 A3 G G2 A2 |]
